X: 20603
T: The BATTLE O' SHIRRA-MUIR
O: Scottish air.--Old set.
Q: "With spirit."
%R: march
B: W. Hamilton "Universal Tune-Book" Vol. 2 Glasgow 1846 p.60 #2
S: http://s3-eu-west-1.amazonaws.com/itma.dl.printmaterial/book_pdfs/hamiltonvol2web.pdf
Z: 2016 John Chambers <jc:trillian.mit.edu>
M: 2/4
L: 1/8
K: G
% - - - - - - - - - - - - - - - - - - - - - - - - -
e |\
dGGG | BGBe | dGGG | d2Bd |\
cAAA | cABA | cAAA | d2B |]\
A |\
Ggga | gedB | Aaab | agfe |\
dgga | gedg |
faeg | faeg |\
faeg | faef | g>aba | g2f |]\
e |\
dGGG | BGBe | dGGG | d2Bd |\
cAAA | cABA | cAAA | d2B |]
% - - - - - - - - - - - - - - - - - - - - - - - - -
%%begintext align
%% The above tune is sometimes called the "Cameronian's Rant,"
%% "Cameron's March," and "Cameron's Reel."
%%endtext
%%sep 1 1 300

%%sep 1 1 500
%%sep 1 1 500

